packages/core/src/svgs/tokens/branded/ZAP.svg

<svg width="24" height="24" viewBox="0 0 24 24" fill="none" xmlns="http://www.w3.org/2000/svg">
<path d="M13.2805 8.87509V2.78878C13.3104 2.63879 13.2535 2.28253 12.7867 2.06378C12.3804 1.87253 11.9366 2.15503 11.8036 2.33815C9.77537 5.57882 5.98851 12.3946 5.84101 12.737C5.65351 13.1695 5.78101 13.4389 5.95851 13.6371C6.09101 13.7864 6.40664 13.8751 6.57602 13.8751H10.6924L9.81416 21.3202C9.8267 21.492 9.96918 21.8646 10.4411 21.9777C10.9129 22.0902 11.2379 21.7501 11.341 21.5658L18.0712 10.1782C18.1686 10.0277 18.3717 9.62881 18.1562 9.27822C17.9405 8.92696 17.5524 8.85885 17.3774 8.87509H13.2805Z" fill="url(#paint0_linear_364_11819)"/>
<defs>
<linearGradient id="paint0_linear_364_11819" x1="12.0001" y1="2.00001" x2="12.0001" y2="22.0001" gradientUnits="userSpaceOnUse">
<stop stop-color="#087FFE"/>
<stop offset="1" stop-color="#50C0FE"/>
</linearGradient>
</defs>
</svg>

<svg xmlns="http://www.w3.org/2000/svg" width="24" height="24" fill="none" viewBox="0 0 24 24">
    <path fill="url(#ZAP__a)" d="M13.28 8.875V2.79c.03-.15-.026-.506-.493-.725-.407-.191-.85.091-.983.274-2.029 3.24-5.815 10.057-5.963 10.399-.187.432-.06.702.118.9.132.15.448.238.617.238h4.116l-.878 7.445c.013.172.155.545.627.658s.797-.228.9-.412l6.73-11.388c.098-.15.3-.55.085-.9a.87.87 0 0 0-.779-.403z"/>
    <defs>
        <linearGradient id="ZAP__a" x1="12" x2="12" y1="2" y2="22" gradientUnits="userSpaceOnUse">
            <stop stop-color="#087FFE"/>
            <stop offset="1" stop-color="#50C0FE"/>
        </linearGradient>
    </defs>
</svg>
